COLOR/action 16/16/snap-text-baseline.svg

<svg height="16" viewBox="0 0 16 16" width="16" xmlns="http://www.w3.org/2000/svg"><g transform="translate(-538.51028 -171.62583)"><path d="m539.51025 184.62582h13.999974v2h-13.999974z" fill="#e95420"/><path d="m43.634639 16.53861q-.156919-.513552-.356634-1.055635-.185449-.542083-.370898-1.084166h-3.85164q-.185449.542083-.385165 1.084166-.185449.542083-.342368 1.055635h-2.310984q.556348-1.597718 1.055635-2.952924.499286-1.355208.970043-2.553495.485021-1.198289.941511-2.268189.470757-1.0841656.970043-2.1112698h2.125535q.485021 1.0271042.955778 2.1112698.470756 1.0699.941512 2.268189.485022 1.198287.984308 2.553495.499288 1.355206 1.055635 2.952924zm-2.667618-7.64622q-.07133.21398-.21398.584879-.142653.370898-.328103.85592-.185449.485021-.413694 1.069899-.21398.58488-.442226 1.22682h2.810272q-.228247-.64194-.442225-1.22682-.213981-.584878-.413696-1.069899-.185448-.485022-.328102-.85592-.142654-.370899-.228246-.584879z" fill="#1a7fd4" stroke-width=".668687" transform="translate(505.49333 166.08722)"/><g transform="translate(538.51028 171.62583)"><path d="m7.9492188 2.8535156c-.0475501.14265-.1177907.3386775-.2128907.5859375-.0951.24727-.204485.5321188-.328125.8554688-.12363.32335-.2619025.6804025-.4140625 1.0703125-.14265.38992-.2892362.7986025-.4414062 1.2265625h.1796875c.0876142-.2442739.1772079-.4955656.2617187-.7265625.1521634-.3899187.2904299-.7469652.4140625-1.0703125.1236334-.323348.233023-.6082034.328125-.8554688.0951-.247266.1653373-.4432841.2128907-.5859375.0570613.1426534.1334129.3386715.2285156.5859375.0951026.2472654.204493.5321208.328125.8554688.1331433.3233473.2714085.6803938.4140625 1.0703125.0844671.2308794.173592.4824196.2617187.7265625h.1816406c-.1521599-.42796-.3007093-.8366425-.4433593-1.2265625-.14265-.38991-.2809225-.7469625-.4140625-1.0703125-.12363-.32335-.233025-.6081988-.328125-.8554688-.0951-.24726-.1714157-.4432875-.2285156-.5859375zm-1.9101563 5.5058594c-.12363.36138-.2516256.7245475-.3847656 1.0859375-.12364.36139-.23914.7123175-.34375 1.0546875h-2.1328125c-.06163.175626-.11497.319754-.1777344.5h2.3105469c.1046126-.342368.2201173-.693299.34375-1.0546875.133144-.3613887.2611329-.7245488.3847656-1.0859375h3.8515625l.371094 1.0859375c.133143.3613885.250855.7123195.355469 1.0546875h2.382812c-.062764-.180246-.116105-.324374-.177734-.5h-2.205078c-.10462-.34237-.222329-.6932975-.355469-1.0546875l-.371094-1.0859375zm-5.0390625 6.140625v.5h14v-.5z" opacity=".2"/><path d="m6.9375 1.1132812c-.3328573.6847362-.6568651 1.3885511-.9707031 2.1113282-.3043267.7132666-.6180589 1.4706719-.9414063 2.2695312-.313838.798858-.6378458 1.6492624-.9707031 2.5527344-.332858.9034707-.6837888 1.8879797-1.0546875 2.953125h.1777344c.3025656-.862217.6004205-1.702534.8769531-2.453125.33285-.90347.6568631-1.7538744.9707031-2.5527344.32335-.79886.6370763-1.5562612.9414063-2.2695312.31383-.72278.6378431-1.4265881.9707031-2.1113282h2.125c.32335.6847401.6412381 1.3885482.955078 2.1113282.31383.71327.629519 1.4706712.94336 2.2695312.32335.79886.651515 1.6492644.984374 2.5527344.276533.750591.574388 1.590908.876954 2.453125h.177734c-.370898-1.0651453-.721829-2.0496543-1.054688-2.953125-.332856-.903472-.661027-1.7538764-.984374-2.5527344-.313839-.7988593-.629523-1.5562646-.94336-2.2695312-.3138378-.7227771-.6317307-1.426592-.955078-2.1113282zm-.2050781 5.9785157c-.0602784.1680589-.1176663.3255726-.1796875.5h2.8105468c-.062063-.1745564-.1209341-.3318215-.1816406-.5zm-5.7324219 5.9082031v.5h14v-.5z" fill="#fff" opacity=".3"/></g></g></svg>

<?xml version="1.0" encoding="UTF-8" standalone="no"?>
<svg
   xmlns:dc="http://purl.org/dc/elements/1.1/"
   xmlns:cc="http://creativecommons.org/ns#"
   xmlns:rdf="http://www.w3.org/1999/02/22-rdf-syntax-ns#"
   xmlns:svg="http://www.w3.org/2000/svg"
   xmlns="http://www.w3.org/2000/svg"
   xmlns:sodipodi="http://sodipodi.sourceforge.net/DTD/sodipodi-0.dtd"
   xmlns:inkscape="http://www.inkscape.org/namespaces/inkscape"
   height="16"
   viewBox="0 0 16 16"
   width="16"
   version="1.1"
   id="svg10"
   sodipodi:docname="snap-text-baseline.svg"
   inkscape:version="0.92.4 (5da689c313, 2019-01-14)">
  <metadata
     id="metadata16">
    <rdf:RDF>
      <cc:Work
         rdf:about="">
        <dc:format>image/svg+xml</dc:format>
        <dc:type
           rdf:resource="http://purl.org/dc/dcmitype/StillImage" />
      </cc:Work>
    </rdf:RDF>
  </metadata>
  <defs
     id="defs14" />
  <sodipodi:namedview
     pagecolor="#ffffff"
     bordercolor="#666666"
     borderopacity="1"
     objecttolerance="10"
     gridtolerance="10"
     guidetolerance="10"
     inkscape:pageopacity="0"
     inkscape:pageshadow="2"
     inkscape:window-width="1920"
     inkscape:window-height="1016"
     id="namedview12"
     showgrid="true"
     inkscape:zoom="60.41744"
     inkscape:cx="7.999987"
     inkscape:cy="9.2674804"
     inkscape:window-x="0"
     inkscape:window-y="27"
     inkscape:window-maximized="1"
     inkscape:current-layer="g8">
    <inkscape:grid
       type="xygrid"
       id="grid839" />
  </sodipodi:namedview>
  <g
     transform="translate(-538.51028 -171.62583)"
     id="g8">
    <rect
       style="opacity:1;fill:#e95420;fill-opacity:1;stroke:none;stroke-width:0.32403675;stroke-linecap:round;stroke-miterlimit:4;stroke-dasharray:none"
       id="rect841"
       width="13.999974"
       height="2"
       x="539.51025"
       y="184.62582" />
    <g
       id="g848"
       transform="translate(505.49333,166.08722)">
      <g
         id="g831"
         style="stroke-width:0.55377102">
        <g
           id="g829"
           style="fill:#1a7fd4">
          <path
             id="path825"
             d="M 43.634639,16.53861 Q 43.47772,16.025058 43.278005,15.482975 43.092556,14.940892 42.907107,14.398809 h -3.85164 q -0.185449,0.542083 -0.385165,1.084166 -0.185449,0.542083 -0.342368,1.055635 H 36.01695 q 0.556348,-1.597718 1.055635,-2.952924 0.499286,-1.355208 0.970043,-2.553495 0.485021,-1.198289 0.941511,-2.268189 0.470757,-1.0841656 0.970043,-2.1112698 h 2.125535 q 0.485021,1.0271042 0.955778,2.1112698 0.470756,1.0699 0.941512,2.268189 0.485022,1.198287 0.984308,2.553495 0.499288,1.355206 1.055635,2.952924 z M 40.967021,8.89239 q -0.07133,0.21398 -0.21398,0.584879 -0.142653,0.370898 -0.328103,0.85592 -0.185449,0.485021 -0.413694,1.069899 -0.21398,0.58488 -0.442226,1.22682 H 42.37929 Q 42.151043,11.987968 41.937065,11.403088 41.723084,10.81821 41.523369,10.333189 41.337921,9.848167 41.195267,9.477269 41.052613,9.10637 40.967021,8.89239 Z"
             inkscape:connector-curvature="0"
             style="stroke-width:0.6686874" />
        </g>
      </g>
    </g>
    <path
       style="opacity:0.2;fill:#000000;fill-opacity:1;stroke:none;stroke-width:0.32403675;stroke-linecap:round;stroke-miterlimit:4;stroke-dasharray:none"
       d="M 7.9492188 2.8535156 C 7.9016687 2.9961656 7.8314281 3.1921931 7.7363281 3.4394531 C 7.6412281 3.6867231 7.5318431 3.9715719 7.4082031 4.2949219 C 7.2845731 4.6182719 7.1463006 4.9753244 6.9941406 5.3652344 C 6.8514906 5.7551544 6.7049044 6.1638369 6.5527344 6.5917969 L 6.7324219 6.5917969 C 6.8200361 6.347523 6.9096298 6.0962313 6.9941406 5.8652344 C 7.146304 5.4753157 7.2845705 5.1182692 7.4082031 4.7949219 C 7.5318365 4.4715739 7.6412261 4.1867185 7.7363281 3.9394531 C 7.8314281 3.6921871 7.9016654 3.496169 7.9492188 3.3535156 C 8.0062801 3.496169 8.0826317 3.6921871 8.1777344 3.9394531 C 8.272837 4.1867185 8.3822274 4.4715739 8.5058594 4.7949219 C 8.6390027 5.1182692 8.7772679 5.4753157 8.9199219 5.8652344 C 9.004389 6.0961138 9.0935139 6.347654 9.1816406 6.5917969 L 9.3632812 6.5917969 C 9.2111213 6.1638369 9.0625719 5.7551544 8.9199219 5.3652344 C 8.7772719 4.9753244 8.6389994 4.6182719 8.5058594 4.2949219 C 8.3822294 3.9715719 8.2728344 3.6867231 8.1777344 3.4394531 C 8.0826344 3.1921931 8.0063187 2.9961656 7.9492188 2.8535156 z M 6.0390625 8.359375 C 5.9154325 8.720755 5.7874369 9.0839225 5.6542969 9.4453125 C 5.5306569 9.8067025 5.4151569 10.15763 5.3105469 10.5 L 3.1777344 10.5 C 3.1161044 10.675626 3.0627644 10.819754 3 11 L 5.3105469 11 C 5.4151595 10.657632 5.5306642 10.306701 5.6542969 9.9453125 C 5.7874409 9.5839238 5.9154298 9.2207637 6.0390625 8.859375 L 9.890625 8.859375 L 10.261719 9.9453125 C 10.394862 10.306701 10.512574 10.657632 10.617188 11 L 13 11 C 12.937236 10.819754 12.883895 10.675626 12.822266 10.5 L 10.617188 10.5 C 10.512568 10.15763 10.394859 9.8067025 10.261719 9.4453125 L 9.890625 8.359375 L 6.0390625 8.359375 z M 1 14.5 L 1 15 L 15 15 L 15 14.5 L 1 14.5 z "
       transform="translate(538.51028,171.62583)"
       id="rect822" />
    <g
       transform="translate(505.49333,166.08722)"
       id="g830">
      <g
         style="stroke-width:0.55377102"
         id="g828">
        <g
           style="fill:#1a7fd4"
           id="g826" />
      </g>
    </g>
    <path
       style="opacity:0.3;fill:#ffffff;fill-opacity:1;stroke:none;stroke-width:0.32403675;stroke-linecap:round;stroke-miterlimit:4;stroke-dasharray:none"
       d="M 6.9375 1.1132812 C 6.6046427 1.7980174 6.2806349 2.5018323 5.9667969 3.2246094 C 5.6624702 3.937876 5.348738 4.6952813 5.0253906 5.4941406 C 4.7115526 6.2929986 4.3875448 7.143403 4.0546875 8.046875 C 3.7218295 8.9503457 3.3708987 9.9348547 3 11 L 3.1777344 11 C 3.4803 10.137783 3.7781549 9.297466 4.0546875 8.546875 C 4.3875375 7.643405 4.7115506 6.7930006 5.0253906 5.9941406 C 5.3487406 5.1952806 5.6624669 4.4378794 5.9667969 3.7246094 C 6.2806269 3.0018294 6.60464 2.2980213 6.9375 1.6132812 L 9.0625 1.6132812 C 9.38585 2.2980213 9.7037381 3.0018294 10.017578 3.7246094 C 10.331408 4.4378794 10.647097 5.1952806 10.960938 5.9941406 C 11.284288 6.7930006 11.612453 7.643405 11.945312 8.546875 C 12.221845 9.297466 12.5197 10.137783 12.822266 11 L 13 11 C 12.629102 9.9348547 12.278171 8.9503457 11.945312 8.046875 C 11.612456 7.143403 11.284285 6.2929986 10.960938 5.4941406 C 10.647099 4.6952813 10.331415 3.937876 10.017578 3.2246094 C 9.7037402 2.5018323 9.3858473 1.7980174 9.0625 1.1132812 L 6.9375 1.1132812 z M 6.7324219 7.0917969 C 6.6721435 7.2598558 6.6147556 7.4173695 6.5527344 7.5917969 L 9.3632812 7.5917969 C 9.3012182 7.4172405 9.2423471 7.2599754 9.1816406 7.0917969 L 6.7324219 7.0917969 z M 1 13 L 1 13.5 L 15 13.5 L 15 13 L 1 13 z "
       transform="translate(538.51028,171.62583)"
       id="path836" />
  </g>
</svg>
